X:220
T:Fraher's Jig
M:6/8
L:1/8
R:Jig (Key of Em)
K:Emin
E2A AGA | B2d dBd | ege dBG | ABA GED |E2A AGA | B2d dBd | ege dBG |1 BAG A2G :|2 BAG A2d ||
e2a aga | e2g gfg | ege dBG | ABA GED | e2a aga | e2g gfg | ege dBG | BAG A2d |
e2a aga | e2g gfg | ege dBG | ABA GED | E2A AGA | B2d dBd | ege dBG | BAG A2G |]
